assets/icons/24px/stroke/lightning-24px.svg

<svg width="24" height="24" viewBox="0 0 24 24" fill="none" xmlns="http://www.w3.org/2000/svg">
<path fill-rule="evenodd" clip-rule="evenodd" d="M16.1562 2.09823C16.569 2.296 16.7948 2.74876 16.7045 3.19746L15.4283 9.53494H18C18.3881 9.53494 18.7411 9.75944 18.9056 10.1109C19.0702 10.4623 19.0166 10.8772 18.7681 11.1753L10.044 21.6404C9.7509 21.9919 9.25655 22.0997 8.84378 21.9019C8.43101 21.7041 8.2052 21.2514 8.29555 20.8027L9.57168 14.4652H7.00001C6.61196 14.4652 6.25895 14.2407 6.09438 13.8892C5.92982 13.5378 5.98343 13.1229 6.23191 12.8249L14.956 2.35973C15.2491 2.00817 15.7435 1.90046 16.1562 2.09823ZM9.13556 12.4652H10.7931C11.0929 12.4652 11.3769 12.5997 11.5669 12.8317C11.7568 13.0637 11.8326 13.3687 11.7734 13.6626L11.0354 17.3277L15.8645 11.5349H14.2069C13.9071 11.5349 13.6231 11.4004 13.4332 11.1684C13.2432 10.9364 13.1674 10.6315 13.2266 10.3375L13.9646 6.67246L9.13556 12.4652Z" fill="white"/>
</svg>

<svg width="24" height="24" fill="none" xmlns="http://www.w3.org/2000/svg"><path fill-rule="evenodd" clip-rule="evenodd" d="M16.156 2.098a1 1 0 0 1 .549 1.1l-1.277 6.337H18a1 1 0 0 1 .768 1.64L10.044 21.64a1 1 0 0 1-1.748-.837l1.276-6.338H7a1 1 0 0 1-.768-1.64L14.956 2.36a1 1 0 0 1 1.2-.262zm-7.02 10.367h1.657a1 1 0 0 1 .98 1.198l-.738 3.665 4.83-5.793h-1.658a1 1 0 0 1-.98-1.197l.738-3.666-4.83 5.793z" fill="#fff"/></svg>
